X: 43163
T: Winter Queen, The
R: reel
M: 4/4
K: Dmajor
|:Adfa ~g2 fg|efed cAAF|~G3F GBdB|Ac~c2 ecAc|
dfaf ~g2 fg|efed cAAF|GFEF GBdB|1 Aceg fddB:|2 Aceg fdde||
|:fB~B2 FB~B2|FBdB cAEF|~G3F GBdB|Acef gfeg|
~f2eg fB~B2|FBdB cAEF|~G3F GBdB|1 Aceg fdde:|2 Aceg fddB||

